X: 39
T:Indian Summer Harmony line 1
M:6/8
L:1/8
C:Rick Gagne
K:D
A|:ddd dAF|DFA dAF|GGG eGG|gGG eGG|!
ddd dAF|DFA dAF|GGG edc|1ddd d2 A:|2ddd dee|!
|:eff fed|eaa agf|eAA GAA|FAA EAA|!
eff fed|eaa agf|eaa agf|edc dee:|!
eff fdB|FBd fed|eAA GAA|FAA EAA|!
eff fdB|FBd fed|eee cBA|ABB BAA:|!
+B,3D3+ +B,3F3+|+B,3E3+ +B,3F3,|+B,3D3+ z3|z3 z3|!
eff fff|ggg fff|z3 z3|1z3 z3:|2z3 z2|

